src/com/lilithsthrone/res/perks/fitness_female_attraction.svg

<?xml version="1.0" encoding="UTF-8" standalone="no"?>
<!-- Created with Inkscape (http://www.inkscape.org/) -->

<svg
   xmlns:dc="http://purl.org/dc/elements/1.1/"
   xmlns:cc="http://creativecommons.org/ns#"
   xmlns:rdf="http://www.w3.org/1999/02/22-rdf-syntax-ns#"
   xmlns:svg="http://www.w3.org/2000/svg"
   xmlns="http://www.w3.org/2000/svg"
   xmlns:sodipodi="http://sodipodi.sourceforge.net/DTD/sodipodi-0.dtd"
   xmlns:inkscape="http://www.inkscape.org/namespaces/inkscape"
   width="100%"
   height="100%"
   viewBox="0 0 64.000001 64.000001"
   id="svg4311"
   version="1.1"
   inkscape:version="0.91 r13725"
   sodipodi:docname="fitness_female_attraction.svg">
  <defs
     id="defs4313">
    <inkscape:path-effect
       effect="powerstroke"
       id="path-effect4183"
       is_visible="true"
       offset_points="0.238227,0.51804536"
       sort_points="true"
       interpolator_type="Linear"
       interpolator_beta="0.2"
       start_linecap_type="zerowidth"
       linejoin_type="round"
       miter_limit="4"
       end_linecap_type="zerowidth"
       cusp_linecap_type="round" />
  </defs>
  <sodipodi:namedview
     id="base"
     pagecolor="#ffffff"
     bordercolor="#666666"
     borderopacity="1.0"
     inkscape:pageopacity="0.0"
     inkscape:pageshadow="2"
     inkscape:zoom="11.2"
     inkscape:cx="25.983615"
     inkscape:cy="35.033648"
     inkscape:document-units="px"
     inkscape:current-layer="layer5"
     showgrid="false"
     units="px"
     inkscape:window-width="2560"
     inkscape:window-height="1388"
     inkscape:window-x="-8"
     inkscape:window-y="-8"
     inkscape:window-maximized="1" />
  <metadata
     id="metadata4316">
    <rdf:RDF>
      <cc:Work
         rdf:about="">
        <dc:format>image/svg+xml</dc:format>
        <dc:type
           rdf:resource="http://purl.org/dc/dcmitype/StillImage" />
        <dc:title></dc:title>
      </cc:Work>
    </rdf:RDF>
  </metadata>
  <g
     inkscape:groupmode="layer"
     id="layer5"
     inkscape:label="Stage5"
     style="display:inline">
    <path
       style="display:inline;fill:#ff0066;fill-opacity:1;fill-rule:evenodd;stroke:#000000;stroke-width:0.5;stroke-linecap:butt;stroke-linejoin:miter;stroke-miterlimit:4;stroke-dasharray:none;stroke-opacity:1"
       d="m 3.8833584,53.193462 c -3.68608398,-5.329911 4.239233,-7.913596 7.2285976,-3.744458 -0.914956,-4.900375 6.471356,-7.335442 7.937738,-1.014213 1.1249,4.849189 -4.33629,6.493017 -3.19366,13.871455 C 11.747481,55.923232 6.7549099,57.345584 3.8833584,53.193462 Z"
       id="path4297-8"
       inkscape:connector-curvature="0"
       sodipodi:nodetypes="scscs"
       inkscape:transform-center-x="6.4934413"
       inkscape:transform-center-y="-0.70836129" />
    <path
       style="display:inline;fill:#ffffff;fill-opacity:0.78504675;fill-rule:evenodd;stroke:none;stroke-width:1px;stroke-linecap:butt;stroke-linejoin:miter;stroke-opacity:1"
       d="m 17.73343,49.953457 c -0.363575,-3.244559 -2.285025,-3.999217 -5.232929,-2.939959 2.552179,-2.245351 6.206933,-1.416423 5.232929,2.939959 z"
       id="path4299-5"
       inkscape:connector-curvature="0"
       sodipodi:nodetypes="ccc"
       inkscape:transform-center-x="-1.6555591"
       inkscape:transform-center-y="-7.7790063" />
    <path
       style="display:inline;fill:#ff0066;fill-opacity:1;fill-rule:evenodd;stroke:#000000;stroke-width:0.5;stroke-linecap:butt;stroke-linejoin:miter;stroke-miterlimit:4;stroke-dasharray:none;stroke-opacity:1"
       d="m 43.420922,43.259828 c 2.25981,-8.13759 11.755134,-2.321799 10.079198,4.150129 4.217471,-4.995399 13.094721,0.402319 7.901874,7.133683 -3.983574,5.163815 -10.387065,1.042692 -16.940518,8.328028 2.970828,-9.43808 -2.80099,-13.272464 -1.040554,-19.61184 z"
       id="path4297-8-6"
       inkscape:connector-curvature="0"
       sodipodi:nodetypes="scscs"
       inkscape:transform-center-x="2.4380275"
       inkscape:transform-center-y="-4.8318616" />
    <path
       style="display:inline;fill:#ffffff;fill-opacity:0.78504675;fill-rule:evenodd;stroke:none;stroke-width:0.5;stroke-linecap:butt;stroke-linejoin:miter;stroke-miterlimit:4;stroke-dasharray:none;stroke-opacity:1"
       d="m 58.711313,54.483975 c 3.001902,-3.064047 2.111427,-5.62275 -1.520868,-7.704293 4.502378,0.697315 6.816038,5.059724 1.520868,7.704293 z"
       id="path4299-5-5"
       inkscape:connector-curvature="0"
       sodipodi:nodetypes="ccc"
       inkscape:transform-center-x="-8.9468219"
       inkscape:transform-center-y="-5.8905369" />
    <path
       style="display:inline;fill:#ff0066;fill-opacity:1;fill-rule:evenodd;stroke:#000000;stroke-width:0.5;stroke-linecap:butt;stroke-linejoin:miter;stroke-miterlimit:4;stroke-dasharray:none;stroke-opacity:1"
       d="M 48.727152,9.5808828 C 45.475386,5.8983477 51.306827,3.0992432 53.931299,5.9687069 52.828634,2.3246439 58.261243,-0.30477624 59.901865,4.3660029 61.160432,7.9490848 57.130813,9.7736983 58.611833,15.285058 54.950845,10.842984 51.260359,12.449661 48.727152,9.5808828 Z"
       id="path4297-8-6-4"
       inkscape:connector-curvature="0"
       sodipodi:nodetypes="scscs"
       inkscape:transform-center-x="10.291678"
       inkscape:transform-center-y="-0.88670116" />
    <path
       style="display:inline;fill:#ffffff;fill-opacity:0.78504675;fill-rule:evenodd;stroke:none;stroke-width:1px;stroke-linecap:butt;stroke-linejoin:miter;stroke-opacity:1"
       d="M 59.023364,5.6623538 C 58.478036,3.2243146 56.95015,2.8490256 54.789196,3.9651454 56.550342,1.9852049 59.406402,2.2362103 59.023364,5.6623538 Z"
       id="path4299-5-5-4"
       inkscape:connector-curvature="0"
       sodipodi:nodetypes="ccc"
       inkscape:transform-center-x="-1.4539645"
       inkscape:transform-center-y="-12.18313" />
    <path
       style="display:inline;fill:#ff0066;fill-opacity:1;fill-rule:evenodd;stroke:#000000;stroke-width:0.5;stroke-linecap:butt;stroke-linejoin:miter;stroke-miterlimit:4;stroke-dasharray:none;stroke-opacity:1"
       d="M 5.2208453,7.2371114 C 5.4431601,0.76055769 13.344667,3.4161669 13.255874,8.5455068 15.445645,4.0671453 22.825937,6.5203975 20.230863,12.467986 18.240109,17.030543 12.876799,15.091042 9.391099,21.693832 9.9027685,14.12011 5.0476636,12.282499 5.2208453,7.2371114 Z"
       id="path4297-8-4"
       inkscape:connector-curvature="0"
       sodipodi:nodetypes="scscs"
       inkscape:transform-center-x="6.4934413"
       inkscape:transform-center-y="-0.70836129" />
    <path
       style="display:inline;fill:#ffffff;fill-opacity:0.78504675;fill-rule:evenodd;stroke:none;stroke-width:1px;stroke-linecap:butt;stroke-linejoin:miter;stroke-opacity:1"
       d="m 18.268427,12.901275 c 1.644232,-2.820612 0.552616,-4.5727123 -2.445044,-5.4816672 3.38783,-0.2789769 5.826058,2.5669659 2.445044,5.4816672 z"
       id="path4299-5-1"
       inkscape:connector-curvature="0"
       sodipodi:nodetypes="ccc"
       inkscape:transform-center-x="-1.6555591"
       inkscape:transform-center-y="-7.7790063" />
    <g
       transform="translate(-16.081334,10.466286)"
       style="display:inline"
       id="g4143">
      <path
         id="path4200-0"
         d="M 48.939358,1.2087415 A 13.8004,13.828189 0 0 0 35.137453,15.037086 13.8004,13.828189 0 0 0 48.939358,28.865431 13.8004,13.828189 0 0 0 62.7395,15.037086 13.8004,13.828189 0 0 0 48.939358,1.2087415 Z m 0,3.6628809 A 10.144562,10.164989 0 0 1 59.08367,15.037086 10.144562,10.164989 0 0 1 48.939358,25.200788 10.144562,10.164989 0 0 1 38.793284,15.037086 10.144562,10.164989 0 0 1 48.939358,4.8716224 Z"
         style="fill:#ff8080;fill-opacity:1;stroke:#000000;stroke-width:0.5;stroke-linecap:butt;stroke-linejoin:round;stroke-miterlimit:4;stroke-dasharray:none;stroke-dashoffset:0;stroke-opacity:1"
         inkscape:connector-curvature="0" />
      <path
         sodipodi:nodetypes="cccccccccccc"
         inkscape:connector-curvature="0"
         id="path4207-5"
         d="m 46.935041,28.477142 0.01007,3.605971 -4.98591,0.02014 0,3.424665 4.895256,0 0.02259,5.33077 4.049163,0 -0.04273,-5.29048 4.975837,-0.04029 -0.01007,-3.464955 -4.965764,0 0.01259,-3.580792"
         style="fill:#ff8080;fill-rule:evenodd;stroke:#000000;stroke-width:0.5;stroke-linecap:butt;stroke-linejoin:miter;stroke-miterlimit:4;stroke-dasharray:none;stroke-opacity:1" />
    </g>
  </g>
</svg>

<svg xmlns="http://www.w3.org/2000/svg" viewBox="0 0 64 64">
    <path fill="#f06" fill-rule="evenodd" stroke="#000" stroke-width=".5" d="M3.883 53.193c-3.686-5.33 4.24-7.913 7.229-3.744-.915-4.9 6.471-7.335 7.938-1.014 1.125 4.849-4.337 6.493-3.194 13.871-4.109-6.383-9.101-4.96-11.973-9.113z"/>
    <path fill="#fff" fill-opacity=".785" fill-rule="evenodd" d="M17.733 49.953c-.363-3.244-2.285-3.999-5.232-2.94 2.552-2.245 6.206-1.416 5.232 2.94z"/>
    <path fill="#f06" fill-rule="evenodd" stroke="#000" stroke-width=".5" d="M43.42 43.26c2.26-8.138 11.756-2.322 10.08 4.15 4.218-4.995 13.095.402 7.902 7.134-3.984 5.163-10.387 1.042-16.94 8.328 2.97-9.438-2.802-13.273-1.041-19.612z"/>
    <path fill="#fff" fill-opacity=".785" fill-rule="evenodd" d="M58.711 54.484c3.002-3.064 2.112-5.623-1.52-7.704 4.502.697 6.815 5.06 1.52 7.704z"/>
    <path fill="#f06" fill-rule="evenodd" stroke="#000" stroke-width=".5" d="M48.727 9.58c-3.252-3.682 2.58-6.48 5.204-3.611-1.102-3.644 4.33-6.274 5.97-1.603 1.26 3.583-2.77 5.408-1.29 10.92-3.66-4.443-7.35-2.836-9.884-5.705z"/>
    <path fill="#fff" fill-opacity=".785" fill-rule="evenodd" d="M59.023 5.662c-.545-2.438-2.073-2.813-4.234-1.697 1.761-1.98 4.617-1.729 4.234 1.697z"/>
    <path fill="#f06" fill-rule="evenodd" stroke="#000" stroke-width=".5" d="M5.22 7.237c.223-6.476 8.125-3.82 8.036 1.309 2.19-4.479 9.57-2.026 6.975 3.922-1.99 4.563-7.354 2.623-10.84 9.226.512-7.574-4.343-9.412-4.17-14.457z"/>
    <path fill="#fff" fill-opacity=".785" fill-rule="evenodd" d="M18.268 12.901c1.645-2.82.553-4.572-2.445-5.481 3.388-.28 5.826 2.567 2.445 5.481z"/>
    <g fill="#ff8080" stroke="#000" stroke-width=".5">
        <path stroke-linejoin="round" d="M32.858 11.675a13.8 13.828 0 0 0-13.802 13.828 13.8 13.828 0 0 0 13.802 13.829 13.8 13.828 0 0 0 13.8-13.829 13.8 13.828 0 0 0-13.8-13.828zm0 3.663a10.145 10.165 0 0 1 10.144 10.165 10.145 10.165 0 0 1-10.144 10.164 10.145 10.165 0 0 1-10.146-10.164 10.145 10.165 0 0 1 10.146-10.165z"/>
        <path fill-rule="evenodd" d="M30.854 38.943l.01 3.606-4.986.02v3.425h4.895l.023 5.331h4.049l-.043-5.29 4.976-.04-.01-3.466h-4.966l.013-3.58"/>
    </g>
</svg>
